X:1
T:Evening Prayer (Stebbins), 87.87
T:Evening Prayer (Stebbins), 87.87
T:George Coles Stebbins, 1878
T:Public Domain Courtesy of the Cyber Hymnal™
C:George Coles Stebbins, 1878
Z:Public Domain
Z:Courtesy of the Cyber Hymnal™
%%score ( 1 2 ) ( 3 4 )
L:1/8
Q:1/4=105
M:2/4
K:Bb
V:1 treble 
V:2 treble 
V:3 bass 
V:4 bass 
V:1
 [DF]2 [DG]2 | [EG]3 [EF] | F2 [FB]2 | [EB]2 [EA]2 | [DB]2 [EG]2 | F2 (FG) | [FA]2 (Gc) | (c2 F2) | %8
 [DF]2 [DG]2 | [EG]3 [EF] | F2 [Fd]2 | [Fd]2 [Fc]2 | [DB]2 [_AB]2 | [GB]3 [EG] | F3 F | [DF]4 |] %16
V:2
 x4 | x4 | F2 x2 | x4 | x4 | F2 F2 | x2 =E2 | E4 | x4 | x4 | F2 x2 | x4 | x4 | x4 | (C2 DE) | x4 |] %16
V:3
 [B,,F,]2 [B,,B,]2 | [C,A,]3 [C,A,] | [D,B,]2 [B,,D]2 | [F,C]2 [F,C]2 | [G,B,]2 [E,B,]2 | %5
 [D,B,]2 [D,=B,]2 | [C,C]2 [C,B,]2 | [F,A,]4 | [B,,F,]2 [B,,B,]2 | [C,A,]3 [C,A,] | %10
 [D,B,]2 [B,,B,]2 | [F,B,]2 [F,A,]2 | [G,B,]2 [F,D]2 | (E2 B,)[E,C] | [F,A,]2 (B,C) | [B,,B,]4 |] %16
V:4
 x4 | x4 | x4 | x4 | x4 | x4 | x4 | x4 | x4 | x4 | x4 | x4 | x4 | E,3 x | x2 F,,2 | x4 |] %16

